X: 124
T:Schottische
M:4/4
L:1/8
R:Schottische
Z:Steve Mansfield
K:G
D2EF G2AB | cBAG Ad^cd | D2EF G2AB | cBAG FGEF | D2EF G2AB |
cBAG Ad^cd | D2EF G2AB | cBAF G4 :: d2d2c2AB | cBAG FDFA |
c2c2B2AG | FGAG FDFA | d2d2c2AB | cBAG FDFA | c2c2B2AG |
FGAF G4 :: A2AB c3B | AGAc B2G2 | A2AB c3B |
ABAF G4 :: d2de d2cB | AGAc B2G2 | d2de d2cB | ABAF G4 :|

